;FLAVOR:UltiGCode
;TIME:1803
;MATERIAL:1409
;MATERIAL2:0
;NOZZLE_DIAMETER:0.400000
;NOZZLE_DIAMETER2:0.400000

;Layer count: 58
;LAYER:0
M107
G0 F9000 X93.286 Y96.406 Z0.300
;TYPE:SKIRT
G1 F600 X101.443 Y95.530 E0.98447
G1 X102.736 Y95.360 E1.14096
G1 X104.001 Y95.159 E1.29467
G1 X105.247 Y94.928 E1.44674
G1 X106.427 Y94.674 E1.59158
G1 X107.648 Y94.379 E1.74231
G1 X108.865 Y94.047 E1.89369
G1 X111.780 Y93.215 E2.25746
G1 X113.900 Y93.201 E2.51187
G1 X113.994 Y93.199 E2.52315
G1 X114.927 Y93.208 E2.63511
G1 X116.048 Y93.274 E2.76987
G1 X117.310 Y93.501 E2.92374
G1 X118.963 Y93.995 E3.13077
G1 X119.951 Y94.370 E3.25758
G1 X120.877 Y94.797 E3.37994
G1 X121.782 Y95.292 E3.50373
G1 X122.752 Y95.921 E3.64246
G1 X124.079 Y96.981 E3.84626
G1 X124.935 Y97.790 E3.98760
G1 X125.806 Y98.739 E4.14217
G1 X126.455 Y99.583 E4.26994
G1 X126.657 Y99.852 E4.31030
G1 X127.322 Y100.874 E4.45662
G1 X127.943 Y101.980 E4.60883
G1 X128.496 Y103.144 E4.76347
G1 X128.973 Y104.354 E4.91955
G1 X129.359 Y105.589 E5.07482
G1 X129.741 Y107.206 E5.27420
G1 X131.599 Y107.206 E5.49716
G1 X130.617 Y110.912 E5.95723
G1 X131.772 Y115.800 E6.55994
G1 X129.322 Y115.800 E6.85394
G1 X128.737 Y118.006 E7.12781
G1 X128.210 Y119.504 E7.31837
G1 X127.594 Y120.881 E7.49939
G1 X126.850 Y122.237 E7.68499
G1 X126.190 Y123.224 E7.82747
G1 X125.938 Y123.602 E7.88199
G1 X125.154 Y124.541 E8.02878
G1 X124.836 Y124.917 E8.08787
G1 X123.749 Y125.947 E8.26757
G1 X122.848 Y126.664 E8.40575
G1 X122.040 Y127.234 E8.52441
G1 X121.203 Y127.756 E8.64278
G1 X120.322 Y128.234 E8.76306
G1 X119.403 Y128.656 E8.88441
G1 X118.444 Y129.022 E9.00759
G1 X117.416 Y129.331 E9.13640
G1 X116.355 Y129.557 E9.26657
G1 X114.883 Y129.767 E9.44500
G1 X113.699 Y129.810 E9.58718
G1 X112.395 Y129.716 E9.74406
G1 X110.750 Y129.379 E9.94556
G1 X109.202 Y128.935 E10.13881
G1 X108.127 Y128.629 E10.27294
G1 X106.983 Y128.330 E10.41483
G1 X105.942 Y128.083 E10.54322
G1 X104.931 Y127.869 E10.66722
G1 X102.788 Y127.488 E10.92842
G1 X100.467 Y127.176 E11.20944
G1 X93.286 Y126.423 E12.07589
G1 X93.286 Y96.406 E15.67793
G0 F9000 X93.686 Y96.766
G1 F600 X101.497 Y95.926 E16.62065
G1 X102.815 Y95.753 E16.78017
G1 X104.096 Y95.549 E16.93582
G1 X105.298 Y95.326 E17.08253
G1 X106.536 Y95.060 E17.23448
G1 X107.734 Y94.770 E17.38239
G1 X108.928 Y94.445 E17.53088
G1 X111.837 Y93.615 E17.89389
G1 X113.906 Y93.601 E18.14218
G1 X113.996 Y93.599 E18.15298
G1 X114.913 Y93.608 E18.26303
G1 X116.001 Y93.672 E18.39381
G1 X117.217 Y93.891 E18.54208
G1 X118.835 Y94.374 E18.74471
G1 X119.796 Y94.739 E18.86806
G1 X120.697 Y95.154 E18.98710
G1 X121.577 Y95.635 E19.10745
G1 X122.518 Y96.245 E19.24202
G1 X123.816 Y97.283 E19.44146
G1 X124.650 Y98.071 E19.57914
G1 X125.500 Y98.996 E19.72989
G1 X126.137 Y99.825 E19.85535
G1 X126.329 Y100.081 E19.89375
G1 X126.980 Y101.081 E20.03694
G1 X127.587 Y102.164 E20.18592
G1 X128.129 Y103.303 E20.33728
G1 X128.595 Y104.487 E20.48997
G1 X128.973 Y105.695 E20.64186
G1 X129.425 Y107.606 E20.87751
G1 X131.079 Y107.606 E21.07599
G1 X130.205 Y110.906 E21.48564
G1 X131.267 Y115.400 E22.03978
G1 X129.014 Y115.400 E22.31014
G1 X128.355 Y117.888 E22.61899
G1 X127.838 Y119.355 E22.80564
G1 X127.235 Y120.703 E22.98285
G1 X126.508 Y122.029 E23.16432
G1 X125.852 Y123.010 E23.30593
G1 X125.617 Y123.362 E23.35672
G1 X124.848 Y124.284 E23.50079
G1 X124.545 Y124.642 E23.55707
G1 X123.486 Y125.645 E23.73211
G1 X122.608 Y126.344 E23.86678
G1 X121.819 Y126.901 E23.98267
G1 X121.002 Y127.410 E24.09818
G1 X120.142 Y127.876 E24.21556
G1 X119.248 Y128.287 E24.33363
G1 X118.316 Y128.643 E24.45336
G1 X117.317 Y128.943 E24.57852
G1 X116.285 Y129.163 E24.70515
G1 X114.847 Y129.368 E24.87945
G1 X113.706 Y129.410 E25.01646
G1 X112.450 Y129.319 E25.16758
G1 X110.846 Y128.990 E25.36407
G1 X109.312 Y128.551 E25.55554
G1 X108.196 Y128.234 E25.69475
G1 X107.099 Y127.947 E25.83082
G1 X105.990 Y127.684 E25.96760
G1 X105.053 Y127.485 E26.08254
G1 X102.819 Y127.088 E26.35482
G1 X100.560 Y126.785 E26.62833
G1 X93.686 Y126.063 E27.45775
G1 X93.686 Y96.766 E30.97339
G0 F9000 X94.086 Y97.125
G1 F600 X101.548 Y96.323 E31.87399
G1 X102.858 Y96.151 E32.03254
G1 X104.147 Y95.946 E32.18916
G1 X105.390 Y95.715 E32.34087
G1 X106.635 Y95.448 E32.49367
G1 X107.827 Y95.159 E32.64085
G1 X109.065 Y94.822 E32.79482
G1 X111.895 Y94.014 E33.14799
G1 X113.914 Y94.001 E33.39028
G1 X113.999 Y93.999 E33.40048
G1 X114.900 Y94.008 E33.50860
G1 X115.954 Y94.069 E33.63530
G1 X117.124 Y94.281 E33.77798
G1 X118.707 Y94.753 E33.97621
G1 X119.641 Y95.108 E34.09611
G1 X120.517 Y95.512 E34.21187
G1 X121.372 Y95.979 E34.32878
G1 X122.283 Y96.570 E34.45909
G1 X123.553 Y97.585 E34.65418
G1 X124.365 Y98.352 E34.78821
G1 X125.193 Y99.254 E34.93514
G1 X125.818 Y100.067 E35.05820
G1 X126.001 Y100.310 E35.09471
G1 X126.637 Y101.288 E35.23470
G1 X127.232 Y102.348 E35.38057
G1 X127.762 Y103.462 E35.52861
G1 X128.218 Y104.620 E35.67795
G1 X128.587 Y105.800 E35.82631
G1 X129.108 Y108.006 E36.09832
G1 X130.559 Y108.006 E36.27244
G1 X129.792 Y110.900 E36.63171
G1 X130.761 Y115.000 E37.13726
G1 X128.706 Y115.000 E37.38386
G1 X127.972 Y117.770 E37.72773
G1 X127.466 Y119.207 E37.91055
G1 X126.877 Y120.525 E38.08378
G1 X126.165 Y121.821 E38.26123
G1 X125.519 Y122.787 E38.40068
G1 X125.296 Y123.122 E38.44897
G1 X124.542 Y124.027 E38.59033
G1 X124.254 Y124.367 E38.64380
G1 X123.224 Y125.342 E38.81399
G1 X122.368 Y126.023 E38.94525
G1 X121.597 Y126.568 E39.05855
G1 X120.800 Y127.064 E39.17120
G1 X119.963 Y127.518 E39.28546
G1 X119.093 Y127.918 E39.40037
G1 X118.187 Y128.264 E39.51675
G1 X117.217 Y128.555 E39.63827
G1 X116.215 Y128.769 E39.76123
G1 X114.812 Y128.969 E39.93129
G1 X113.713 Y129.009 E40.06325
G1 X112.505 Y128.922 E40.20859
G1 X110.941 Y128.601 E40.40018
G1 X109.435 Y128.170 E40.58816
G1 X108.310 Y127.850 E40.72851
G1 X107.156 Y127.548 E40.87166
G1 X106.128 Y127.304 E40.99844
G1 X105.116 Y127.090 E41.12257
G1 X102.895 Y126.695 E41.39327
G1 X100.587 Y126.385 E41.67272
G1 X94.086 Y125.703 E42.45712
G1 X94.086 Y97.125 E45.88648
G0 F9000 X94.486 Y97.484
G1 F600 X101.557 Y96.725 E46.73987
G1 X102.937 Y96.543 E46.90691
G1 X104.204 Y96.342 E47.06085
G1 X105.475 Y96.106 E47.21598
G1 X106.735 Y95.835 E47.37063
G1 X107.921 Y95.548 E47.51706
G1 X109.144 Y95.215 E47.66916
G1 X111.952 Y94.414 E48.01957
G1 X113.881 Y94.401 E48.25105
G1 X114.001 Y94.399 E48.26545
G1 X114.886 Y94.408 E48.37166
G1 X115.906 Y94.467 E48.49426
G1 X117.031 Y94.670 E48.63144
G1 X118.578 Y95.132 E48.82518
G1 X119.486 Y95.477 E48.94174
G1 X120.337 Y95.869 E49.05418
G1 X121.167 Y96.323 E49.16770
G1 X122.049 Y96.895 E49.29385
G1 X123.291 Y97.888 E49.48467
G1 X124.080 Y98.633 E49.61489
G1 X124.887 Y99.512 E49.75808
G1 X125.500 Y100.309 E49.87874
G1 X125.673 Y100.540 E49.91337
G1 X126.295 Y101.495 E50.05014
G1 X126.876 Y102.532 E50.19278
G1 X127.395 Y103.622 E50.33765
G1 X127.840 Y104.753 E50.48349
G1 X128.201 Y105.906 E50.62848
G1 X128.792 Y108.406 E50.93675
G1 X130.039 Y108.406 E51.08639
G1 X129.380 Y110.895 E51.39536
G1 X130.255 Y114.600 E51.85219
G1 X128.398 Y114.600 E52.07503
G1 X127.590 Y117.652 E52.45388
G1 X127.094 Y119.059 E52.63291
G1 X126.518 Y120.347 E52.80222
G1 X125.823 Y121.613 E52.97553
G1 X125.187 Y122.565 E53.11291
G1 X124.975 Y122.883 E53.15878
G1 X124.235 Y123.770 E53.29740
G1 X123.963 Y124.091 E53.34788
G1 X122.961 Y125.040 E53.51349
G1 X122.127 Y125.703 E53.64134
G1 X121.376 Y126.234 E53.75172
G1 X120.599 Y126.718 E53.86157
G1 X119.784 Y127.160 E53.97282
G1 X118.938 Y127.549 E54.08456
G1 X118.058 Y127.885 E54.19760
G1 X117.118 Y128.167 E54.31536
G1 X116.145 Y128.375 E54.43476
G1 X114.776 Y128.570 E54.60070
G1 X113.721 Y128.609 E54.72739
G1 X112.559 Y128.525 E54.86719
G1 X111.036 Y128.213 E55.05374
G1 X109.532 Y127.782 E55.24149
G1 X108.423 Y127.466 E55.37987
G1 X107.262 Y127.162 E55.52388
G1 X106.216 Y126.914 E55.65288
G1 X105.179 Y126.694 E55.78009
G1 X102.972 Y126.302 E56.04908
G1 X100.611 Y125.985 E56.33494
G1 X94.486 Y125.343 E57.07397
G1 X94.486 Y97.484 E60.41705
G0 F9000 X94.886 Y97.844
G1 F600 X101.649 Y97.116 E61.23329
G1 X102.980 Y96.941 E61.39439
G1 X104.300 Y96.731 E61.55478
G1 X105.527 Y96.504 E61.70452
G1 X106.797 Y96.231 E61.86040
G1 X108.048 Y95.928 E62.01486
G1 X109.253 Y95.600 E62.16472
G1 X112.009 Y94.814 E62.50863
G1 X113.889 Y94.801 E62.73424
G1 X114.003 Y94.799 E62.74792
G1 X114.872 Y94.808 E62.85220
G1 X115.859 Y94.865 E62.97084
G1 X116.938 Y95.060 E63.10242
G1 X118.450 Y95.511 E63.29176
G1 X119.331 Y95.846 E63.40486
G1 X120.157 Y96.227 E63.51402
G1 X120.962 Y96.667 E63.62411
G1 X121.815 Y97.220 E63.74610
G1 X123.028 Y98.190 E63.93247
G1 X123.795 Y98.914 E64.05904
G1 X124.580 Y99.769 E64.19833
G1 X125.181 Y100.551 E64.31668
G1 X125.345 Y100.769 E64.34941
G1 X125.952 Y101.702 E64.48298
G1 X126.521 Y102.716 E64.62251
G1 X127.028 Y103.781 E64.76405
G1 X127.463 Y104.887 E64.90667
G1 X127.815 Y106.012 E65.04813
G1 X128.475 Y108.806 E65.39263
G1 X129.520 Y108.806 E65.51803
G1 X128.968 Y110.890 E65.77674
G1 X129.750 Y114.200 E66.18487
G1 X128.091 Y114.200 E66.38395
G1 X127.207 Y117.535 E66.79797
G1 X126.723 Y118.910 E66.97290
G1 X126.160 Y120.169 E67.13839
G1 X125.481 Y121.406 E67.30773
G1 X124.854 Y122.343 E67.44302
G1 X124.654 Y122.643 E67.48628
G1 X123.929 Y123.512 E67.62209
G1 X123.672 Y123.816 E67.66986
G1 X122.699 Y124.738 E67.83071
G1 X121.887 Y125.383 E67.95515
G1 X121.155 Y125.901 E68.06276
G1 X120.398 Y126.373 E68.16981
G1 X119.605 Y126.803 E68.27806
G1 X118.783 Y127.180 E68.38658
G1 X117.929 Y127.506 E68.49628
G1 X117.018 Y127.780 E68.61043
G1 X116.075 Y127.981 E68.72614
G1 X114.740 Y128.171 E68.88795
G1 X113.728 Y128.208 E69.00947
G1 X112.614 Y128.128 E69.14350
G1 X111.132 Y127.824 E69.32504
G1 X109.642 Y127.397 E69.51104
G1 X108.537 Y127.082 E69.64892
G1 X107.379 Y126.779 E69.79256
G1 X106.265 Y126.515 E69.92994
G1 X105.271 Y126.304 E70.05188
G1 X103.022 Y125.904 E70.32599
G1 X100.674 Y125.590 E70.61026
G1 X94.886 Y124.982 E71.30864
G1 X94.886 Y97.844 E74.56520
G0 F9000 X95.286 Y98.203
G1 F600 X101.663 Y97.517 E75.33486
G1 X103.053 Y97.335 E75.50308
G1 X104.363 Y97.126 E75.66227
G1 X105.646 Y96.889 E75.81883
G1 X106.860 Y96.628 E75.96784
G1 X108.142 Y96.317 E76.12614
G1 X109.380 Y95.980 E76.28011
G1 X112.066 Y95.213 E76.61531
G1 X113.899 Y95.201 E76.83528
G1 X114.005 Y95.199 E76.84800
G1 X114.859 Y95.208 E76.95049
G1 X115.812 Y95.263 E77.06504
G1 X116.845 Y95.450 E77.19101
G1 X118.322 Y95.891 E77.37598
G1 X119.176 Y96.215 E77.48559
G1 X119.977 Y96.584 E77.59142
G1 X120.757 Y97.011 E77.69813
G1 X121.581 Y97.545 E77.81596
G1 X122.765 Y98.492 E77.99789
G1 X123.510 Y99.195 E78.12081
G1 X124.274 Y100.027 E78.25636
G1 X124.862 Y100.793 E78.37224
G1 X125.017 Y100.998 E78.40308
G1 X125.610 Y101.910 E78.53362
G1 X126.165 Y102.900 E78.66981
G1 X126.661 Y103.940 E78.80808
G1 X127.085 Y105.020 E78.94731
G1 X127.429 Y106.118 E79.08538
G1 X128.159 Y109.206 E79.46616
G1 X129.000 Y109.206 E79.56708
G1 X128.555 Y110.885 E79.77551
G1 X129.244 Y113.800 E80.13495
G1 X127.783 Y113.800 E80.31027
G1 X126.824 Y117.417 E80.75931
G1 X126.351 Y118.762 E80.93040
G1 X125.801 Y119.991 E81.09197
G1 X125.139 Y121.198 E81.25717
G1 X124.522 Y122.121 E81.39040
G1 X124.333 Y122.403 E81.43113
G1 X123.623 Y123.255 E81.56422
G1 X123.381 Y123.541 E81.60918
G1 X122.436 Y124.435 E81.76528
G1 X121.647 Y125.063 E81.88629
G1 X120.933 Y125.568 E81.99124
G1 X120.196 Y126.027 E82.09543
G1 X119.426 Y126.445 E82.20056
G1 X118.628 Y126.811 E82.30592
G1 X117.800 Y127.127 E82.41227
G1 X116.919 Y127.392 E82.52266
G1 X116.005 Y127.587 E82.63481
G1 X114.705 Y127.772 E82.79238
G1 X113.735 Y127.808 E82.90886
G1 X112.669 Y127.731 E83.03712
G1 X111.227 Y127.435 E83.21377
G1 X109.763 Y127.016 E83.39650
G1 X108.606 Y126.687 E83.54084
G1 X107.486 Y126.394 E83.67977
G1 X106.353 Y126.125 E83.81951
G1 X105.334 Y125.909 E83.94450
G1 X103.098 Y125.511 E84.21704
G1 X100.698 Y125.190 E84.50761
G1 X95.286 Y124.622 E85.16061
G1 X95.286 Y98.203 E88.33089
G0 F9000 X95.686 Y98.562
G1 F600 X101.714 Y97.915 E89.05841
G1 X103.096 Y97.733 E89.22568
G1 X104.420 Y97.522 E89.38656
G1 X105.731 Y97.279 E89.54656
G1 X106.969 Y97.013 E89.69851
G1 X108.194 Y96.716 E89.84977
G1 X109.518 Y96.356 E90.01442
G1 X112.124 Y95.613 E90.33960
G1 X113.908 Y95.601 E90.55369
G1 X114.008 Y95.599 E90.56569
G1 X114.845 Y95.608 E90.66614
G1 X115.764 Y95.661 E90.77660
G1 X116.752 Y95.839 E90.89707
G1 X118.193 Y96.270 E91.07756
G1 X119.021 Y96.584 E91.18382
G1 X119.797 Y96.942 E91.28637
G1 X120.551 Y97.354 E91.38948
G1 X121.346 Y97.870 E91.50321
G1 X122.503 Y98.794 E91.68090
G1 X123.225 Y99.476 E91.80008
G1 X123.968 Y100.285 E91.93189
G1 X124.544 Y101.034 E92.04527
G1 X124.689 Y101.228 E92.07434
G1 X125.267 Y102.117 E92.20158
G1 X125.810 Y103.084 E92.33466
G1 X126.294 Y104.100 E92.46971
G1 X126.708 Y105.153 E92.60549
G1 X127.043 Y106.224 E92.74015
G1 X127.842 Y109.606 E93.15716
G1 X128.480 Y109.606 E93.23372
G1 X128.143 Y110.878 E93.39163
G1 X128.739 Y113.400 E93.70260
G1 X127.475 Y113.400 E93.85428
G1 X126.442 Y117.299 E94.33830
G1 X125.979 Y118.614 E94.50560
G1 X125.443 Y119.812 E94.66309
G1 X124.796 Y120.990 E94.82437
G1 X124.189 Y121.898 E94.95544
G1 X124.012 Y122.164 E94.99378
G1 X123.317 Y122.998 E95.12405
G1 X123.090 Y123.266 E95.16620
G1 X122.174 Y124.133 E95.31755
G1 X121.407 Y124.743 E95.43515
G1 X120.712 Y125.234 E95.53726
G1 X119.995 Y125.681 E95.63865
G1 X119.247 Y126.087 E95.74078
G1 X118.473 Y126.442 E95.84296
G1 X117.671 Y126.748 E95.94597
G1 X116.819 Y127.004 E96.05273
G1 X115.935 Y127.193 E96.16120
G1 X114.669 Y127.373 E96.31465
G1 X113.742 Y127.407 E96.42597
G1 X112.724 Y127.334 E96.54844
G1 X111.322 Y127.046 E96.72019
G1 X109.873 Y126.631 E96.90106
G1 X108.732 Y126.306 E97.04343
G1 X107.542 Y125.995 E97.19103
G1 X106.491 Y125.746 E97.32064
G1 X105.426 Y125.520 E97.45128
G1 X103.129 Y125.111 E97.73126
G1 X100.794 Y124.799 E98.01395
G1 X95.686 Y124.262 E98.63029
G1 X95.686 Y98.562 E101.71429
G0 F9000 X96.086 Y98.921
G1 F600 X101.764 Y98.312 E102.39956
G1 X103.139 Y98.131 E102.56598
G1 X104.516 Y97.912 E102.73330
G1 X105.782 Y97.677 E102.88781
G1 X107.068 Y97.401 E103.04564
G1 X108.288 Y97.105 E103.19629
G1 X109.642 Y96.737 E103.36467
G1 X112.181 Y96.012 E103.68152
G1 X113.917 Y96.001 E103.88985
G1 X114.010 Y95.999 E103.90101
G1 X114.832 Y96.007 E103.99966
G1 X115.717 Y96.059 E104.10604
G1 X116.659 Y96.229 E104.22090
G1 X118.065 Y96.649 E104.39699
G1 X118.866 Y96.953 E104.49980
G1 X119.617 Y97.299 E104.59903
G1 X120.346 Y97.698 E104.69875
G1 X121.112 Y98.194 E104.80826
G1 X122.240 Y99.096 E104.98157
G1 X122.940 Y99.757 E105.09711
G1 X123.661 Y100.543 E105.22510
G1 X124.225 Y101.276 E105.33608
G1 X124.361 Y101.457 E105.36325
G1 X124.925 Y102.324 E105.48737
G1 X125.455 Y103.268 E105.61728
G1 X125.926 Y104.259 E105.74895
G1 X126.330 Y105.286 E105.88138
G1 X126.657 Y106.330 E106.01266
G1 X127.526 Y110.006 E106.46594
G1 X127.960 Y110.006 E106.51802
G1 X127.730 Y110.873 E106.62566
G1 X128.233 Y113.000 E106.88794
G1 X127.167 Y113.000 E107.01586
G1 X126.059 Y117.181 E107.53490
G1 X125.607 Y118.465 E107.69825
G1 X125.084 Y119.634 E107.85193
G1 X124.454 Y120.782 E108.00907
G1 X123.857 Y121.676 E108.13807
G1 X123.691 Y121.924 E108.17388
G1 X123.010 Y122.740 E108.30142
G1 X122.799 Y122.990 E108.34068
G1 X121.911 Y123.831 E108.48744
G1 X121.167 Y124.423 E108.60154
G1 X120.490 Y124.901 E108.70098
G1 X119.794 Y125.335 E108.79941
G1 X119.068 Y125.729 E108.89853
G1 X118.318 Y126.073 E108.99755
G1 X117.542 Y126.370 E109.09726
G1 X116.720 Y126.616 E109.20022
G1 X115.865 Y126.799 E109.30514
G1 X114.634 Y126.974 E109.45435
G1 X113.749 Y127.007 E109.56062
G1 X112.779 Y126.936 E109.67733
G1 X111.418 Y126.658 E109.84403
G1 X109.973 Y126.244 E110.02440
G1 X109.973 Y126.243 E110.02452
G1 X108.833 Y125.919 E110.16674
G1 X107.659 Y125.612 E110.31236
G1 X106.539 Y125.346 E110.45050
G1 X105.518 Y125.130 E110.57573
G1 X103.206 Y124.719 E110.85752
G1 X100.818 Y124.399 E111.14664
G1 X96.086 Y123.902 E111.71760
G1 X96.086 Y98.921 E114.71532
G0 F9000 X96.486 Y99.281
G1 F600 X101.820 Y98.707 E115.35910
G1 X103.213 Y98.524 E115.52769
G1 X104.566 Y98.309 E115.69209
